X:33
T:Lass of Perth,The. JJo3.033
Z:vmp.Steve Mansfield 2014 www.village-music-project.org.uk
B:J.Johnson Choice Collection Vol 3 1744
M:C|
L:1/4
W:Each strain twice
Q:1/2=90
K:G
B A/G/ DG | A(G/F/) Ac | B(A/G/) DG | B>A Bd |
ce Bg | A/B/A/G/ FA | Bd (f3/2e//f/4) | gG Bd ||
g(g/4a/4b/) dg | a/b/a/g/ fa | g(g/4a/4b/) dg |
B(A/G/) Bd | ce Bg | A/B/A/G/ FA | B/c/d (f3/2e//f/4) | g/d/B/G/ Bd |]

